packages/tokens/icons/sun/size16Px.svg

<svg viewBox="0 0 16 16" fill="none" xmlns="http://www.w3.org/2000/svg" width="1em" height="1em"><circle cx="4" cy="4" r="3.5" transform="matrix(-1 0 0 1 12 4)" stroke="currentColor"/><path d="M3.00006 13L3.70717 12.2929M12.2929 3.70711L13 3M13 13L12.2929 12.2929M3.70713 3.70711L3.00002 3M8 14.5V13.5M8 2.5V1.5M14.5 8H13.5M2.5 8H1.5" stroke="currentColor" stroke-linecap="round"/></svg>

<svg xmlns="http://www.w3.org/2000/svg" fill="none" viewBox="0 0 16 16" width="1em" height="1em"><circle cx="4" cy="4" r="3.5" stroke="currentColor" transform="matrix(-1 0 0 1 12 4)"/><path stroke="currentColor" stroke-linecap="round" d="m3 13 .707-.707m8.586-8.586L13 3m0 10-.707-.707M3.707 3.707 3 3m5 11.5v-1m0-11v-1M14.5 8h-1m-11 0h-1"/></svg>
